svg/media/service_line.svg

<?xml version="1.0" encoding="UTF-8"?>
<svg width="24px" height="24px" viewBox="0 0 24 24" version="1.1" xmlns="http://www.w3.org/2000/svg" xmlns:xlink="http://www.w3.org/1999/xlink">
    <title>service_line</title>
    <g id="页面-1" stroke="none" stroke-width="1" fill="none" fill-rule="evenodd">
        <g id="Media" transform="translate(-1536.000000, 0.000000)">
            <g id="service_line" transform="translate(1536.000000, 0.000000)">
                 <path d="M24,0 L24,24 L0,24 L0,0 L24,0 Z M12.5934901,23.257841 L12.5819402,23.2595131 L12.5108777,23.2950439 L12.4918791,23.2987469 L12.4918791,23.2987469 L12.4767152,23.2950439 L12.4056548,23.2595131 C12.3958229,23.2563662 12.3870493,23.2590235 12.3821421,23.2649074 L12.3780323,23.275831 L12.360941,23.7031097 L12.3658947,23.7234994 L12.3769048,23.7357139 L12.4804777,23.8096931 L12.4953491,23.8136134 L12.4953491,23.8136134 L12.5071152,23.8096931 L12.6106902,23.7357139 L12.6232938,23.7196733 L12.6232938,23.7196733 L12.6266527,23.7031097 L12.609561,23.275831 C12.6075724,23.2657013 12.6010112,23.2592993 12.5934901,23.257841 L12.5934901,23.257841 Z M12.8583906,23.1452862 L12.8445485,23.1473072 L12.6598443,23.2396597 L12.6498822,23.2499052 L12.6498822,23.2499052 L12.6471943,23.2611114 L12.6650943,23.6906389 L12.6699349,23.7034178 L12.6699349,23.7034178 L12.678386,23.7104931 L12.8793402,23.8032389 C12.8914285,23.8068999 12.9022333,23.8029875 12.9078286,23.7952264 L12.9118235,23.7811639 L12.8776777,23.1665331 C12.8752882,23.1545897 12.8674102,23.1470016 12.8583906,23.1452862 L12.8583906,23.1452862 Z M12.1430473,23.1473072 C12.1332178,23.1423925 12.1221763,23.1452606 12.1156365,23.1525954 L12.1099173,23.1665331 L12.0757714,23.7811639 C12.0751323,23.7926639 12.0828099,23.8018602 12.0926481,23.8045676 L12.108256,23.8032389 L12.3092106,23.7104931 L12.3186497,23.7024347 L12.3186497,23.7024347 L12.3225043,23.6906389 L12.340401,23.2611114 L12.337245,23.2485176 L12.337245,23.2485176 L12.3277531,23.2396597 L12.1430473,23.1473072 Z" id="MingCute" fill-rule="nonzero"></path>
                <path d="M5,9 C5,5.13401 8.13401,2 12,2 C15.866,2 19,5.13401 19,9 L19,10.0354 C20.6961,10.2781 22,11.7368 22,13.5 L22,13.75 C22,15.5449 20.5449,17 18.75,17 C18.7224,17 18.695,16.9994 18.6678,16.9981 C17.9274,19.118 16.0464,20.5467 14.0149,20.9093 C13.5456,21.0808 12.9889,21 12.5,21 C11.6716,21 11,20.3284 11,19.5 C11,18.6716 11.6716,18 12.5,18 L13.5,18 C13.9946,18 14.4333,18.2394 14.7065,18.6086 C16.0035,17.9919 17,16.6885 17,15 L17,9 C17,6.23858 14.7614,4 12,4 C9.23858,4 7,6.23858 7,9 L7,15.25 C7,16.2165 6.2165,17 5.25,17 C3.45507,17 2,15.5449 2,13.75 L2,13.5 C2,11.7368 3.30385,10.2781 5,10.0354 L5,9 Z M5,12.0854 C4.4174,12.2913 4,12.8469 4,13.5 L4,13.75 C4,14.3547 4.42944,14.8592 5,14.975 L5,12.0854 Z M19,12.0854 L19,14.975 C19.5706,14.8592 20,14.3547 20,13.75 L20,13.5 C20,12.8469 19.5826,12.2913 19,12.0854 Z" id="形状" fill="#09244B"></path>
            </g>
        </g>
    </g>
</svg>

<svg xmlns="http://www.w3.org/2000/svg" width="24" height="24"><g fill="none" fill-rule="evenodd"><path d="M24 0v24H0V0h24ZM12.593 23.258l-.011.002-.071.035-.02.004-.014-.004-.071-.035c-.01-.004-.019-.001-.024.005l-.004.01-.017.428.005.02.01.013.104.074.015.004.012-.004.104-.074.012-.016.004-.017-.017-.427c-.002-.01-.009-.017-.017-.018Zm.265-.113-.013.002-.185.093-.01.01-.003.011.018.43.005.012.008.007.201.093c.012.004.023 0 .029-.008l.004-.014-.034-.614c-.003-.012-.01-.02-.02-.022Zm-.715.002a.023.023 0 0 0-.027.006l-.006.014-.034.614c0 .012.007.02.017.024l.015-.002.201-.093.01-.008.004-.011.017-.43-.003-.012-.01-.01-.184-.092Z"/><path fill="#09244B" d="M5 9a7 7 0 0 1 14 0v1.035c1.696.243 3 1.702 3 3.465v.25a3.25 3.25 0 0 1-3.332 3.248c-.74 2.12-2.622 3.549-4.653 3.911-.47.172-1.026.091-1.515.091a1.5 1.5 0 0 1 0-3h1c.495 0 .933.24 1.207.609C16.003 17.992 17 16.689 17 15V9A5 5 0 0 0 7 9v6.25A1.75 1.75 0 0 1 5.25 17 3.25 3.25 0 0 1 2 13.75v-.25a3.5 3.5 0 0 1 3-3.465V9Zm0 3.085A1.5 1.5 0 0 0 4 13.5v.25c0 .605.43 1.11 1 1.225v-2.89Zm14 0v2.89c.57-.116 1-.62 1-1.225v-.25a1.5 1.5 0 0 0-1-1.415Z"/></g></svg>
